X:7419
T: The Touchstone
O:england
S: Thompson 1773
N: abc version by Robert Bley-Vroman, Contradancers of Hawaii, October 15, 1996
N:   http://www.lll.hawaii.edu/contra/
M: C|
L: 1/8
K: D
|:d2 f2 d2 f2 | dfed dcBA | d2 f2 d2 f2 | a2 a2 a4 |
d2 f2 d2 f2 | dfed dcBA | B2 g2 e2 c2 | d4 d4 :|
|:e2 c2 f2 d2 | g2 e2 a2 f2 | B4  c2 d2 | cdcB A4 |
e2 c2 f2 d2 | g2 e2 a2 f2 | B2 b2 agfe | d4 d4 :|
